symbols/web/15mp/materialsymbolssharp/15mp_wght300gradN25_24px.svg

<svg xmlns="http://www.w3.org/2000/svg" height="24" width="24"><path d="M8.725 11.325H9.85V5.75H7.225v1.125h1.5Zm3.45 0h4.075v-3.2H13.3v-1.25h2.95V5.75h-4.075v3.2h2.95v1.25h-2.95Zm-8.5 9V3.675h16.65v16.65Zm1.4-1.4h13.85V5.075H5.075Zm1.175-.675h1.125V13.8h1.35v2.975H9.85V13.8h1.35v4.45h1.125v-5.575H6.25Zm7.425 0H14.8v-1.475h2.95v-4.1h-4.075ZM14.8 13.8h1.825v1.825H14.8ZM5.075 5.075v13.85Z"/></svg>

<svg xmlns="http://www.w3.org/2000/svg" height="24" width="24"><path d="M8.725 11.325H9.85V5.75H7.225V6.875H8.725ZM12.175 11.325H16.25V8.125H13.3V6.875H16.25V5.75H12.175V8.95H15.125V10.2H12.175ZM3.675 20.325V3.675H20.325V20.325ZM5.075 18.925H18.925V5.075H5.075ZM6.25 18.25H7.375V13.8H8.725V16.775H9.85V13.8H11.2V18.25H12.325V12.675H6.25ZM13.675 18.25H14.8V16.775H17.75V12.675H13.675ZM14.8 13.8H16.625V15.625H14.8ZM5.075 5.075V18.925Z"/></svg>
